X: 14
T: The Tempest
%R: reel
B: Stewart "A Select Collection of Airs, Jigs, Marches and Reels", ca.1784, p.7 #14
F: http://imslp.org/wiki/A_Select_Collection_of_Airs,_Jigs,_Marches_and_Reels_%28Various%29
Z: 2017 John Chambers <jc:trillian.mit.edu>
M: 2/4
L: 1/16
K: G
|:\
GABc dBec | dBec dcBA |\
GABc dBgb | agfe d2d2 :|
|:\
dfaf dgbg | eac'b agfe |\
dBec dBec | dcBA G2G2 :|

%%sep 1 1 500
%%sep 1 1 500

